X: 22488
T: Lady Charlotte Campbell's New
R: strathspey
M: 4/4
K: Cdorian
F/E/|:D<F F>B E<G Gc/B/|A<c f>e d<b B>f|D<F F>B E<G Gc/B/|1 A/B/c F>E D<B BF/E/:|2 A/B/c F>E D<B B>a||
b>B fa gB Ff|e>c e/d/c/B/ A<c c>a|b>B a>A g>G f>F|A/B/c F>E D<B B>a|
b>B fa gB Ff|e>c e/d/c/B/ A<c cB/A/|G>B F>B E>B D>B|E/F/G F>E D<B, B,||

